assets/icons/code-pull-request.svg

<svg xmlns="http://www.w3.org/2000/svg" class="icon" viewBox="0 0 512 512">
  <path
    d="M 305.70873786407765 4.970873786407767 Q 318.63300970873786 11.930097087378641 319.6271844660194 26.842718446601943 L 319.6271844660194 74.5631067961165 L 319.6271844660194 74.5631067961165 L 335.5339805825243 74.5631067961165 L 335.5339805825243 74.5631067961165 Q 386.2368932038835 75.55728155339806 420.0388349514563 109.35922330097087 Q 453.8407766990291 143.1611650485437 454.8349514563107 193.8640776699029 L 454.8349514563107 356.9087378640777 L 454.8349514563107 356.9087378640777 Q 479.68932038834953 364.8621359223301 494.6019417475728 384.74563106796114 Q 510.50873786407766 405.6233009708738 510.50873786407766 432.4660194174757 Q 509.5145631067961 466.2679611650485 487.6427184466019 489.13398058252426 Q 464.77669902912623 511.00582524271846 430.9747572815534 512 Q 397.1728155339806 511.00582524271846 374.30679611650487 489.13398058252426 Q 352.43495145631067 466.2679611650485 351.44077669902913 432.4660194174757 Q 351.44077669902913 405.6233009708738 367.34757281553397 384.74563106796114 Q 382.26019417475726 364.8621359223301 407.11456310679614 356.9087378640777 L 407.11456310679614 193.8640776699029 L 407.11456310679614 193.8640776699029 Q 406.12038834951454 163.04466019417475 386.2368932038835 143.1611650485437 Q 366.3533980582524 123.27766990291262 335.5339805825243 122.28349514563106 L 319.6271844660194 122.28349514563106 L 319.6271844660194 122.28349514563106 L 319.6271844660194 170.00388349514563 L 319.6271844660194 170.00388349514563 Q 318.63300970873786 184.91650485436892 305.70873786407765 191.8757281553398 Q 291.7902912621359 196.84660194174756 279.8601941747573 187.8990291262136 L 200.32621359223302 116.31844660194174 L 200.32621359223302 116.31844660194174 Q 192.37281553398057 109.35922330097087 192.37281553398057 98.42330097087378 Q 192.37281553398057 87.4873786407767 200.32621359223302 80.52815533980582 L 279.8601941747573 8.94757281553398 L 279.8601941747573 8.94757281553398 Q 291.7902912621359 0 305.70873786407765 4.970873786407767 L 305.70873786407765 4.970873786407767 Z M 112.8388349514563 82.51650485436893 Q 112.8388349514563 68.59805825242718 103.89126213592233 59.650485436893206 L 103.89126213592233 59.650485436893206 L 103.89126213592233 59.650485436893206 Q 94.94368932038834 50.702912621359225 81.0252427184466 50.702912621359225 Q 67.10679611650485 50.702912621359225 58.15922330097087 59.650485436893206 Q 49.21165048543689 68.59805825242718 49.21165048543689 82.51650485436893 Q 49.21165048543689 96.43495145631069 58.15922330097087 105.38252427184466 Q 67.10679611650485 114.33009708737865 81.0252427184466 114.33009708737865 Q 94.94368932038834 114.33009708737865 103.89126213592233 105.38252427184466 Q 112.8388349514563 96.43495145631069 112.8388349514563 82.51650485436893 L 112.8388349514563 82.51650485436893 Z M 104.88543689320389 158.073786407767 L 104.88543689320389 356.9087378640777 L 104.88543689320389 158.073786407767 L 104.88543689320389 356.9087378640777 Q 129.7398058252427 364.8621359223301 144.652427184466 384.74563106796114 Q 160.55922330097087 405.6233009708738 160.55922330097087 432.4660194174757 Q 159.56504854368933 466.2679611650485 137.69320388349516 489.13398058252426 Q 114.82718446601942 511.00582524271846 81.0252427184466 512 Q 47.22330097087379 511.00582524271846 24.357281553398057 489.13398058252426 Q 2.4854368932038833 466.2679611650485 1.4912621359223301 432.4660194174757 Q 1.4912621359223301 405.6233009708738 17.398058252427184 384.74563106796114 Q 32.310679611650485 364.8621359223301 57.16504854368932 356.9087378640777 L 57.16504854368932 158.073786407767 L 57.16504854368932 158.073786407767 Q 32.310679611650485 150.12038834951457 17.398058252427184 130.23689320388348 Q 1.4912621359223301 109.35922330097087 1.4912621359223301 82.51650485436893 Q 2.4854368932038833 48.71456310679611 24.357281553398057 25.848543689320387 Q 47.22330097087379 3.9766990291262134 81.0252427184466 2.9825242718446603 Q 114.82718446601942 3.9766990291262134 137.69320388349516 25.848543689320387 Q 159.56504854368933 48.71456310679611 160.55922330097087 82.51650485436893 Q 160.55922330097087 109.35922330097087 144.652427184466 130.23689320388348 Q 129.7398058252427 150.12038834951457 104.88543689320389 158.073786407767 L 104.88543689320389 158.073786407767 Z M 112.8388349514563 432.4660194174757 Q 112.8388349514563 418.54757281553395 103.89126213592233 409.6 L 103.89126213592233 409.6 L 103.89126213592233 409.6 Q 94.94368932038834 400.65242718446603 81.0252427184466 400.65242718446603 Q 67.10679611650485 400.65242718446603 58.15922330097087 409.6 Q 49.21165048543689 418.54757281553395 49.21165048543689 432.4660194174757 Q 49.21165048543689 446.38446601941746 58.15922330097087 455.33203883495145 Q 67.10679611650485 464.27961165048544 81.0252427184466 464.27961165048544 Q 94.94368932038834 464.27961165048544 103.89126213592233 455.33203883495145 Q 112.8388349514563 446.38446601941746 112.8388349514563 432.4660194174757 L 112.8388349514563 432.4660194174757 Z M 430.9747572815534 464.27961165048544 Q 444.8932038834951 464.27961165048544 453.8407766990291 455.33203883495145 L 453.8407766990291 455.33203883495145 L 453.8407766990291 455.33203883495145 Q 462.7883495145631 446.38446601941746 462.7883495145631 432.4660194174757 Q 462.7883495145631 418.54757281553395 453.8407766990291 409.6 Q 444.8932038834951 400.65242718446603 430.9747572815534 400.65242718446603 Q 417.05631067961167 400.65242718446603 408.1087378640777 409.6 Q 399.1611650485437 418.54757281553395 399.1611650485437 432.4660194174757 Q 399.1611650485437 446.38446601941746 408.1087378640777 455.33203883495145 Q 417.05631067961167 464.27961165048544 430.9747572815534 464.27961165048544 L 430.9747572815534 464.27961165048544 Z"
  />
</svg>

<svg xmlns="http://www.w3.org/2000/svg" class="icon" viewBox="0 0 512 512">
  <path
    d="M305.709 4.97q12.924 6.96 13.918 21.873v47.72h15.907q50.703.994 84.505 34.796t34.796 84.505V356.91q24.854 7.953 39.767 27.837 15.907 20.877 15.907 47.72-.994 33.802-22.866 56.668-22.866 21.872-56.668 22.866-33.802-.994-56.668-22.866-21.872-22.866-22.866-56.668 0-26.843 15.907-47.72 14.912-19.884 39.767-27.837V193.864q-.995-30.82-20.878-50.703-19.884-19.883-50.703-20.878h-15.907v47.72q-.994 14.914-13.918 21.873-13.919 4.97-25.849-3.977l-79.534-71.58q-7.953-6.96-7.953-17.896t7.953-17.895l79.534-71.58Q291.79 0 305.71 4.97M112.84 82.517q0-13.919-8.948-22.867-8.947-8.947-22.866-8.947-13.918 0-22.866 8.947-8.947 8.948-8.947 22.867 0 13.918 8.947 22.866 8.948 8.947 22.866 8.947 13.919 0 22.866-8.947 8.948-8.948 8.948-22.866m-7.954 75.557v198.835zv198.835q24.855 7.953 39.767 27.837 15.907 20.877 15.907 47.72-.994 33.802-22.866 56.668Q114.827 511.006 81.025 512q-33.802-.994-56.668-22.866-21.872-22.866-22.866-56.668 0-26.843 15.907-47.72 14.913-19.884 39.767-27.837V158.074q-24.854-7.954-39.767-27.837-15.907-20.878-15.907-47.72.994-33.802 22.866-56.668Q47.223 3.977 81.025 2.983q33.802.994 56.668 22.866 21.872 22.866 22.866 56.668 0 26.842-15.907 47.72-14.912 19.883-39.767 27.837m7.954 274.392q0-13.918-8.948-22.866-8.947-8.948-22.866-8.948-13.918 0-22.866 8.948-8.947 8.948-8.947 22.866t8.947 22.866 22.866 8.948 22.866-8.948q8.948-8.948 8.948-22.866m318.136 31.814q13.918 0 22.866-8.948 8.947-8.948 8.947-22.866t-8.947-22.866-22.866-8.948-22.866 8.948-8.948 22.866 8.948 22.866 22.866 8.948" />
</svg>
